Numix-GalliumOS/16/status/system-devices-panel.svg

<?xml version="1.0" encoding="UTF-8" standalone="no"?>
<svg
   xmlns:dc="http://purl.org/dc/elements/1.1/"
   xmlns:cc="http://creativecommons.org/ns#"
   xmlns:rdf="http://www.w3.org/1999/02/22-rdf-syntax-ns#"
   xmlns:svg="http://www.w3.org/2000/svg"
   xmlns="http://www.w3.org/2000/svg"
   xmlns:sodipodi="http://sodipodi.sourceforge.net/DTD/sodipodi-0.dtd"
   xmlns:inkscape="http://www.inkscape.org/namespaces/inkscape"
   width="16"
   height="16"
   viewBox="0 0 16 16"
   id="svg2"
   version="1.1"
   inkscape:version="0.91 r"
   sodipodi:docname="system-devices-panel.svg">
  <metadata
     id="metadata42">
    <rdf:RDF>
      <cc:Work
         rdf:about="">
        <dc:format>image/svg+xml</dc:format>
        <dc:type
           rdf:resource="http://purl.org/dc/dcmitype/StillImage" />
      </cc:Work>
    </rdf:RDF>
  </metadata>
  <sodipodi:namedview
     pagecolor="#ffffff"
     bordercolor="#666666"
     borderopacity="1"
     objecttolerance="10"
     gridtolerance="10"
     guidetolerance="10"
     inkscape:pageopacity="0"
     inkscape:pageshadow="2"
     inkscape:window-width="1280"
     inkscape:window-height="998"
     id="namedview40"
     showgrid="true"
     inkscape:zoom="16"
     inkscape:cx="14.017067"
     inkscape:cy="9.5123219"
     inkscape:window-x="0"
     inkscape:window-y="0"
     inkscape:window-maximized="1"
     inkscape:current-layer="svg2"
     showguides="true"
     inkscape:guide-bbox="true">
    <inkscape:grid
       type="xygrid"
       id="grid3019" />
  </sodipodi:namedview>
  <defs
     id="defs4" />
  <path
     style="fill:#ececec;fill-opacity:1;fill-rule:evenodd;stroke:none"
     d="M 5 1.75 C 2.9266153 2.8361203 1.5 4.9970762 1.5 7.5 C 1.5 11.08985 4.4101491 14 8 14 C 8.3425315 14 8.6717825 13.957302 9 13.90625 L 9 12.03125 C 8.6763782 12.10289 8.344608 12.15625 8 12.15625 C 5.4358208 12.15625 3.34375 10.06418 3.34375 7.5 C 3.34375 6.0893841 4.0070775 4.8515117 5 4 L 5 1.75 z M 11 1.75 L 11 4 L 13.46875 4 C 12.856693 3.0540564 12.003347 2.2755923 11 1.75 z "
     id="path3049" />
  <rect
     style="fill:#ececec;fill-opacity:1;fill-rule:evenodd;stroke:none"
     id="rect3060"
     width="2"
     height="7"
     x="7"
     y="1" />
  <path
     style="fill:#ececec;fill-opacity:1;fill-rule:evenodd;stroke:none"
     d="M 11 11 L 11 11.53125 L 11 12.46875 L 11 13 L 11.53125 13 L 13 13 L 14.46875 13 C 14.765613 13 15 12.765613 15 12.46875 L 15 11.53125 C 15 11.234387 14.765613 11 14.46875 11 L 13 11 L 11.53125 11 L 11 11 z "
     id="rect3067" />
  <path
     style="fill:#ececec;fill-opacity:1;fill-rule:evenodd;stroke:none"
     d="M 11 8 L 11 8.53125 L 11 9.46875 L 11 10 L 11.53125 10 L 13 10 L 14.46875 10 C 14.765613 10 15 9.7656134 15 9.46875 L 15 8.53125 C 15 8.2343866 14.765613 8 14.46875 8 L 13 8 L 11.53125 8 L 11 8 z "
     id="rect3067-7" />
  <path
     style="fill:#ececec;fill-opacity:1;fill-rule:evenodd;stroke:none"
     d="M 11 5 L 11 5.53125 L 11 6.46875 L 11 7 L 11.53125 7 L 13 7 L 14.46875 7 C 14.765613 7 15 6.7656134 15 6.46875 L 15 5.53125 C 15 5.2343866 14.765613 5 14.46875 5 L 13 5 L 11.53125 5 L 11 5 z "
     id="rect3067-7-0" />
</svg>

<svg xmlns="http://www.w3.org/2000/svg" viewBox="0 0 16 16">
 <path d="m 5 1.75 c -2.073 1.086 -3.5 3.247 -3.5 5.75 c 0 3.59 2.91 6.5 6.5 6.5 c 0.343 0 0.672 -0.043 1 -0.094 l 0 -1.875 c -0.324 0.072 -0.655 0.125 -1 0.125 c -2.564 0 -4.656 -2.092 -4.656 -4.656 c 0 -1.411 0.663 -2.648 1.656 -3.5 l 0 -2.25 z m 6 0 l 0 2.25 l 2.469 0 c -0.612 -0.946 -1.465 -1.724 -2.469 -2.25 z" style="fill:#ececec;fill-opacity:1;stroke:none;fill-rule:evenodd"/>
 <rect width="2" height="7" x="7" y="1" style="fill:#ececec;fill-opacity:1;stroke:none;fill-rule:evenodd"/>
 <path d="m 11 11 l 0 0.531 l 0 0.938 l 0 0.531 l 0.531 0 l 1.469 0 l 1.469 0 c 0.297 0 0.531 -0.234 0.531 -0.531 l 0 -0.938 c 0 -0.297 -0.234 -0.531 -0.531 -0.531 l -1.469 0 l -1.469 0 l -0.531 0 z" style="fill:#ececec;fill-opacity:1;stroke:none;fill-rule:evenodd"/>
 <path d="m 11 8 l 0 0.531 l 0 0.938 l 0 0.531 l 0.531 0 l 1.469 0 l 1.469 0 c 0.297 0 0.531 -0.234 0.531 -0.531 l 0 -0.938 c 0 -0.297 -0.234 -0.531 -0.531 -0.531 l -1.469 0 l -1.469 0 l -0.531 0 z" style="fill:#ececec;fill-opacity:1;stroke:none;fill-rule:evenodd"/>
 <path d="m 11 5 l 0 0.531 l 0 0.938 l 0 0.531 l 0.531 0 l 1.469 0 l 1.469 0 c 0.297 0 0.531 -0.234 0.531 -0.531 l 0 -0.938 c 0 -0.297 -0.234 -0.531 -0.531 -0.531 l -1.469 0 l -1.469 0 l -0.531 0 z" style="fill:#ececec;fill-opacity:1;stroke:none;fill-rule:evenodd"/>
</svg>
